X:227
T:King George the third Country Dance
O:No 227 Wm Clarke of Feltwell
N:Bar 16 should be two dotted crotchets? 
M:6/8
L:1/8
K:C
e3c3| G3GEF| GEF GEF| GFE D3|e3c3| G3 GEF|GAG GAB| d3 c3||/!
c3 e3 |g3 gec| cBA GAB| cde dBG| c3 e3| g3 gBe| dec BcA| G3 G3||/!
e3c3| G3 GEF| GEF GEF| GFE D3| e3c3| G3 GEF| GAG GAB| d3 c3||/!
(Gc)c (ec)c|gcc ecc| Gcc ecc| fdc BAG| Gcc ecc| gcc ecc| GBd fdB|ceg c'3||

